X:1
T:Polsk
T:(Totakt-pols, nr. HJH-448)
S:efter Hans Jens Hansen,
O:Hjertinge, Ribe amt, Danmark
R:Totakt-pols
Z:ABC-transkribering av Åke Persson
M:2/4
L:1/8
K:D
|: F2 A(F/A/) | d2 f(d/f/) | ee[Aa][Aa] | [Af][Af][Aa][Aa] | F2 A(F/A/) | d2 fd/f/ | ea (A/c/)(e/c/) | d2z2 :|
|: (f/e/)(f/g/) fe | dBcd | eefb | (a/g/)(f/g/) a2 | DDGG | EE A2 | (d/f/)(e/d/) (c/e/)(a/c/) | d2z2 :|

